source/svgs/bowtie/uE92E-comment-add.svg

<svg xmlns="http://www.w3.org/2000/svg" viewBox="0 0 448 448"><path d="M448 96v256h-185.86l-102.14 91.938v-91.938h-64v-128h32v96h64v52.063l57.86-52.063h166.14v-192h-192v-32h224zm-288-32h-64v-64h-32v64h-64v32h64v64h32v-64h64v-32z"/></svg>

<svg xmlns="http://www.w3.org/2000/svg" viewBox="0 0 448 448"><path d="M448 96v256H262.14L160 443.938V352H96V224h32v96h64v52.063L249.86 320H416V128H224V96h224zM160 64H96V0H64v64H0v32h64v64h32V96h64V64z"/></svg>
